X: 150
T: Rock the Cradle Joe
C:Old-Time
B: canberra pickers and fiddlers
B: old time tunes update
B: tunes
M:4/4
L:1/8
Q: 1/4=100
K:D
V:1 
|:fg | "D"a2ag fefg | a2ag fefg | a2ab age2 | [A2f2]>[A2g2] [A2f2]de |
fefe [d2D2] [e2A2] | fefe [d2D2] ef | "G"gfed "A"cABc |[1 [d3D3]c [d2D2]:| [2 [d3D3]c [d2D2] BB||
|: "A"Acec Acee | "D"fefg afaf | "G"[g2B2] gf gbag | "D"e[f2A2]g fedB |
"A"Acec Acee | "D"fefg afaf | "G"gfed "A"cABc |1 [d3D3]e [d2D2] BB:| [2 [d3D3]e [d4D4]||
% abcbook-tune_id 67a7d9ec9ae1e5d153725598
% abcbook-tune_composer_id 
% abcbook-link-0 https://www.youtube.com/watch?v=-YY7UJCkt2U
% abcbook-link-title-0 Rock the Cradle Joe - Jubals Kin Oldtime Jam - Mt Airy Fiddlers Convention
% abcbook-link-end-at-0 255
% abcbook-boost 0
% abcbook-difficulty 0
% abcbook-tags old time tunes
% abcbook-tablature 
% abcbook-transpose 
% abcbook-tuning ADAE
% abcbook-lastupdated 1739220185420
% abcbook-src-url 
% abcbook-soundfonts 
% abcbook-repeats 1


